X:90
T:Mark Quinn's
S:irtrad-l, 5/97, P. Varlet
M:2/4
L:1/16
Q:142
R:polka
D:Celtic Thunder: Green Linnet GL 1029 (1981)
K:G
G2AG E2D2 | G2B2 d4 | e2d2 B2G2 | ABAG E2D2 |
G2AG E2D2 | G2B2 d4 | e2d2 B2A2 | G4 G4 :||
: d4 d2Bd | e2d2 B2G2 | c4 c3d | e2d2 B2G2 |
d4 d2Bd | e2d2 B2G2 | A2Bc B2A2 | G4 G4 :||
